bell-outline.svg

<svg fill="currentColor" viewBox="0 0 24 24"><path d="M10 21h4c0 1.1-.9 2-2 2s-2-.9-2-2m11-2v1H3v-1l2-2v-6c0-3.1 2-5.8 5-6.7V4c0-1.1.9-2 2-2s2 .9 2 2v.3c3 .9 5 3.6 5 6.7v6zm-4-8c0-2.8-2.2-5-5-5s-5 2.2-5 5v7h10z"/></svg>

<svg  viewBox="0 0 24 24" fill="currentColor"><path  d="M10 21H14C14 22.1 13.1 23 12 23S10 22.1 10 21M21 19V20H3V19L5 17V11C5 7.9 7 5.2 10 4.3V4C10 2.9 10.9 2 12 2S14 2.9 14 4V4.3C17 5.2 19 7.9 19 11V17L21 19M17 11C17 8.2 14.8 6 12 6S7 8.2 7 11V18H17V11Z"/></svg>
